X:1
T:Hic Petrus
T:Daniel Friderici
T:Source : Bicinia sacra---Rostock---J.Richelius---1642. Editor : André Vierendeels (11/07/17).
T:Notes : Original clefs : C1, C1 Editorial accidentals above the staff
T:Hic Petrus
T:©
T:©
T:©
C:Daniel Friderici
Z:©
%%score [ 1 2 ]
L:1/8
Q:1/4=120
M:2/2
K:F
V:1 treble nm="Soprano 1" snm="S 1"
V:2 treble nm="Soprano 2" snm="S 2"
V:1
 z8 | z4 z2 c2 | d4 c2 A2 | B2 G2 A2 F2 | G2 E2 F2 D2 | E2 C2 D4 | C2 c2 c2 B2 | ^c2 A2 G2 G2 | %8
w: |Hic|Pe- trus, hic|Pe- * * *|||trus, hic Pe- trus|est, hic Pe- trus|
 A2 F2 F2 E2 | F2 f4 e2 | d8 | c4 c4 | f4 e2 e2 | d2 c2 d4 |[M:2/4] c4 :: z2 c2 | %16
w: est, hic Pe- trus|est, qui de|pe-|tra te|Chri- ste fa-|te- * *|tur:|Quod|
[M:2/2] d4 c2 B2- | B2 A2 G4 | c6 c2 | FGAB c2 c2 | FGAB c4 | z2 G2 GABc | d2 d2 GABc | d4 z2 d2 | %24
w: sis, quod sis|_ ae- ter-|ni vi-|va _ _ _ _ vi-|va, _ _ _ _|vi- va, _ _ _|_ vi- va, _ _ _|_ vi-|
 DEFG A2 G2 | FGAB c2 B2 | A4 z2 d2- | d^c c2 d2 B2 | A4 G4 | z2 c3 =B B2 | c2 A2 G4 | F4 z2 d2 | %32
w: va, _ _ _ _ vi-|va, _ _ _ _ vi-|va, vi-|* va pro- pa- go|De- i,|vi- va pro-|pa- go De-|i, pro-|
 c3 B/A/ B3 A/G/ | A3 G/F/ G3 F/E/ | F3 E/D/ E3 D/C/ | D4 C2 c2- | c=B B2 c2 A2 | G2 F3 E/D/ E2 | %38
w: pa- * * * * *|||* go, vi|_ va pro- pa- go|De- * * * *|
 F8 :| %39
w: i.|
V:2
 c8 |"^-natural" d4 c2 A2 | B2 G2 A2 F2 | G2 E2 F2 D2 | E2 C2 D4 | C2 c2 c2 =B2 | c2 A2 G2 G2 | %7
w: Hic|Pe- trus, hic|Pe- * * *|||trus, hic Pe- trus|est, hic Pe- trus|
 A2 F2 F2 E2 | FGAB c4 | z2 d4 e2 | f8 | e4 e4 | d4 c2 c2 | =B2 c4 B2 |[M:2/4] c4 :: z2 A2 | %16
w: est, hic Pe- trus|est _ _ _ _|qui de|pe-|tra te|Chri- ste fa-|te- * *|tur:|Quod|
[M:2/2] B4 c2 d2- | d2 c2 B4 | A2 A2 FGAB | c2 c2 FGAB | c4 z2 A2 | GABc d2 d2 | GABc d2 d2 | %23
w: sis, quod sis|_ ae- ter-|ni vi- va, _ _ _|_ vi- va, _ _ _|_ vi-|va, _ _ _ _ vi-|va, _ _ _ _ vi-|
 DEFG A2 G2 | FGAB c2 B2 | A4 z2 d2- | d^c c2 d2 B2 | A4 G4 | z2 c3 =B B2 | c2 A2 G4 | F4 z2 C2 | %31
w: va, _ _ _ _ vi-|va, _ _ _ _ vi-|va, vi|_ va pro- pa- go|De- i,|vi- va pro-|pa- go De-|i, pro-|
 c3 B/A/ B3 A/G/ | A3 G/F/ G3 F/E/ | F3 E/D/ E3 D/C/ | D4 C2 c2- | c=B B2 c2 A2 | G4 F2 c2 | %37
w: pa- * * * * *|||* go, vi-|* va pro- pa- go|De- i, pro-|
 B2 A2 G4 | F8 :| %39
w: pa- go De-|i.|

